exported-svg/cloud.svg

<svg height="24" viewBox="0 0 24 24" width="24" xmlns="http://www.w3.org/2000/svg"><path d="m7.56685671 3.12172179c-4.35530073.74179989-7.41619877 4.69644853-7.04233389 9.09862261.37386485 4.4021736 4.05782957 7.7839993 8.47584979 7.7807117h8.99962739c3.0375658 0 5.5-2.4624404 5.5-5.5000069 0-3.0375661-2.4624339-5.49999999-5.5-5.49999999h-.8817915c-1.2467415-4.06032999-5.32472-6.59921226-9.55135179-5.87932742zm10.43314329 6.87932741c2.4852814 0 4.5 2.0147186 4.5 4.5 0 2.4852819-2.0147191 4.5000044-4.5 4.5000044h-9c-3.89862606.0029031-7.14918336-2.981061-7.47906412-6.8653319-.32988077-3.88427125 2.37091162-7.37366711 6.21382402-8.02819642s7.5465526 1.74405613 8.5211172 5.51852407c.0569999.22075915.2561238.37499985.4841229.37499985z"/></svg>

<?xml version="1.0" encoding="UTF-8"?>
<svg width="24px" height="24px" viewBox="0 0 24 24" version="1.1" xmlns="http://www.w3.org/2000/svg" xmlns:xlink="http://www.w3.org/1999/xlink">
    <!-- Generator: Sketch 55.2 (78181) - https://sketchapp.com -->
    <title>cloud</title>
    <desc>Created with Sketch.</desc>
    <g id="cloud" stroke="none" stroke-width="1" fill="none" fill-rule="evenodd">
        <path d="M7.56685671,3.12172179 C3.21155598,3.86352168 0.150657935,7.81817032 0.524522819,12.2203444 C0.898387665,16.622518 4.58235239,20.0043437 9.00037261,20.0010561 L18,20.0010561 C21.0375658,20.0010561 23.5,17.5386157 23.5,14.5010492 C23.5,11.4634831 21.0375661,9.00104921 18,9.00104921 L17.1182085,9.00104921 C15.871467,4.94071922 11.7934885,2.40183695 7.56685671,3.12172179 Z M18,10.0010492 C20.4852814,10.0010492 22.5,12.0157678 22.5,14.5010492 C22.5,16.9863311 20.4852809,19.0010536 18,19.0010536 L9,19.0010536 C5.10137394,19.0039567 1.85081664,16.0199926 1.52093588,12.1357217 C1.19105511,8.25145045 3.8918475,4.76205459 7.7347599,4.10752528 C11.5776723,3.45299597 15.2813125,5.85158141 16.2558771,9.62604935 C16.312877,9.8468085 16.5120009,10.0010492 16.74,10.0010492 L18,10.0010492 Z" id="Shape" fill="#000000" fill-rule="nonzero"></path>
    </g>
</svg>
